X: 795
T: Xin shanxi
L: 1/8
M: 2/4
K: C
c e d e [I:setbarnb 1]| 
c e d e | 
c B A c | 
A EG2 | 
G G G e | 
d e c B | 
A G G D | 
C4 |]

@@@ Tune index: 9669
